X: 1452
T: Ancient And Honourable Order Of The Highland Hundred, The
R: jig
M: 6/8
K: Bminor
|:Bce f2e|faa fec|ABc e2f|ecf ecA|
Bce f2e|faa fec|ABc eAf|1 eAc B2A:|2 eAc B2e||
f>ff f2e|fae fec|e>ee e2c|efc ece|
f>ff f2e|fae fec|ABc eAf|eAc B2e|
f>ff f2e|fae fec|e>ee e2c|efc ecA|
Bce f2e|faa fec|ABc eAf|eAc B3||
|:BAc B3|Bce fga|cBA A2B|c>cc ecA|
BAc B3|Bce fga|ABc eAf|1 eAc B3:|2 eAc B2e||
fae f2e|faa fec|efc e2c|eff ece|
fae f2e|faa fec|ABc eAf|eAc B2e|
fae f2e|faa fec|efc e2c|eff ecA|
BAc B3|Bce fga|ABc eAf|eAc B3||

